X:1
T:[ID 6-17b]
T:[ID 6-17b]
T:Bezeichnung standardisiert: Complimenten Sesken; Compl [Complimenten Sesken]
T:Urheber unbekannt Datum in der hier transkribierten schriftlichen Quelle: 1775
C:Urheber unbekannt
C:Datum in der hier transkribierten schriftlichen Quelle: 1775
L:1/8
M:3/4
K:G
V:1 treble 
V:1
 d3 cBG | d2 efgg | dedcBG | d2 ef g2 :: GBAF | GBAF | GBAF | A2 G2 :: d | d3 c B2 | B2 A2 G2 | %11
 d2 ef gB | c2 ec A2 | B2 dB G2 | c2 A2 F2 | G3 :| %16

